X: 20091
T: BONNIE DUNDEE
Q: "Largo"
%R: jig
B: "Edinburgh Repository of Music" v.2 p.9 #1
F: http://digital.nls.uk/special-collections-of-printed-music/pageturner.cfm?id=87776133
Z: 2015 John Chambers <jc:trillian.mit.edu>
M: 6/8
L: 1/8
K: Am
A |\
EAA ({BA^G}A>B)c | {c}B>AG Bd2 | e<ee d>eg | (e>dc/B/ A3) |\
EAA A>Bc | {c}B>AG Bc2 | eee deg | (e>dc/B/ A2) :|
|: (B/A/) |\
GBd {ag^f}g>ab | {c}B>AG Bd2 | (ea).a a>ga | ({ga}b>ag/^f/) e3 |\
(d>e^f) (g>ab) | {c}B>AG Bd2 | ee (d/B/) deg | (e>dc/B/ A2) :|
